X:122
T:The Foxhunter's Reel                                                                              
M:C                                                                                                 
L:1/8                                                                                               
K:A                                                                                                 
e2 cA eAcA|eAcA BABc|eAcA eAcA|BdcA BAFA|                                                           
EAcA eAcA|eAcA BAFA|EAcA eAcA|edcA BAFA ||                                                          
E3 c cBAF|EccA BAFA|E3 c cBAF|dBcA  BAFA :|                                                         
afec A2  ce|afec fB B2|afec ABcA|Bcde fB B2 :|                                                      
eaag a2 af|eaae faea|eaag a2 ae|faec BABc :|                                                        
A2 (3cBA eAcA|AccA BABc|A2 (3cBA eAce|faec BABc :|
